X: 893
T: Gördüm Âgâz Eyliyor
C: Ahmet Avni Konuk
O: Turkey
F: http://compmusic.upf.edu/node/140
N: kurdi-gerdaniye--kupe--musemmen--gordum--ahmet_avni_konuk
N: makam= kurdi-gerdaniye
N: form= kupe
N: usul= musemmen = 8/8
M: 8/8
L: 1/16
K: C _1/4B ^f  
Q: 1/4=96
%%MIDI tuningsystem comma53
g4 g2^3/4f{_2/4b}g agg4z2  | d2d2 e2dc c_2/4Bc4z2  | \
w:  Gör düm  â *  *  *  *  gâz   |  ey *  li yor  *  *  *  bir   | 
d2g2 g2g4a2 _2/4b2g2  | 
w:  Kür *  dî  Ger dâ  | 
ac'_2/4b2 abag g^3/4fg4z2  | g4 {a}g^3/4fa2 gfgf e2z2  | 
w:  ni *  *  ye *  den    |  Raks_ *  e *  der  *  *  şevk_  | 
e4 _1/4e2d2 _3/4e2g^3/4f edc2  | c4 c2c_2/4B2Adc BAG2  | \
w:  i  sa dâ *  sıy  |  le  bü tün  *  *  sahn_  | 
_B4 {c}BAGA B{c}B/A/A4z2  | 
w:  ı  *  çe *  men    | 
|


